plugin/assets/images/custom.svg

<svg width="32" height="32" viewBox="0 0 32 32" fill="none" xmlns="http://www.w3.org/2000/svg">
<rect width="32" height="16" fill="#0336FF"/>
<rect y="16" width="16" height="16" fill="#FFDE03"/>
<rect opacity="0.25" x="16" y="16" width="16" height="16" fill="#FFDE03"/>
<rect x="24" y="24" width="8" height="8" fill="#FF0266"/>
<rect x="24" y="16" width="8" height="8" fill="white"/>
<path d="M4 1H28V-1H4V1ZM31 4V28H33V4H31ZM28 31H4V33H28V31ZM1 28V4H-1V28H1ZM4 31C2.34315 31 1 29.6569 1 28H-1C-1 30.7614 1.23858 33 4 33V31ZM31 28C31 29.6569 29.6569 31 28 31V33C30.7614 33 33 30.7614 33 28H31ZM28 1C29.6569 1 31 2.34315 31 4H33C33 1.23858 30.7614 -1 28 -1V1ZM4 -1C1.23858 -1 -1 1.23858 -1 4H1C1 2.34315 2.34315 1 4 1V-1Z" fill="black" fill-opacity="0.12"/>
</svg>

<svg width="32" height="32" fill="none" xmlns="http://www.w3.org/2000/svg"><path fill="#0336FF" d="M0 0h32v16H0z"/><path fill="#FFDE03" d="M0 16h16v16H0z"/><path opacity=".25" fill="#FFDE03" d="M16 16h16v16H16z"/><path fill="#FF0266" d="M24 24h8v8h-8z"/><path fill="#fff" d="M24 16h8v8h-8z"/><path d="M4 1h24v-2H4v2zm27 3v24h2V4h-2zm-3 27H4v2h24v-2zM1 28V4h-2v24h2zm3 3a3 3 0 01-3-3h-2a5 5 0 005 5v-2zm27-3a3 3 0 01-3 3v2a5 5 0 005-5h-2zM28 1a3 3 0 013 3h2a5 5 0 00-5-5v2zM4-1a5 5 0 00-5 5h2a3 3 0 013-3v-2z" fill="#000" fill-opacity=".12"/></svg>
